X: 2069
T: MISS NISBET OF DIRLETON
C:
Q: "Reel."
R: Reel.
%R: reel
B: James Kerr "Merry Melodies" v.2 p.10 #69
Z: 2016 John Chambers <jc:trillian.mit.edu>
M: C
L: 1/8
K: Am
ue |\
AAec BGGB | AAeA cde^f |\
gdec BGGB | AAeB cAA ::\
u^g |\
aee=g BGG^g |
aee^f gbaf |\
[1 gdec BGGB | AAeB cAA :|\
[2 gdec BdGB | AaeB cAA |]
